;FLAVOR:UltiGCode
;TIME:3123
;MATERIAL:6861
;MATERIAL2:0
;NOZZLE_DIAMETER:0.400000
;NOZZLE_DIAMETER2:0.400000

;Layer count: 80
;LAYER:0
M107
G0 F9000 X86.758 Y70.464 Z0.260
;TYPE:SKIRT
G1 F1800 X87.410 Y69.802 E0.09663
G1 X110.579 Y63.594 E2.59121
G1 X111.499 Y63.347 E2.69028
G1 X134.659 Y69.553 E5.18389
G1 X135.551 Y69.772 E5.27941
G1 X153.201 Y87.424 E7.87549
G1 X159.405 Y110.576 E10.36825
G1 X159.653 Y111.499 E10.46765
G1 X153.440 Y134.684 E12.96396
G1 X153.222 Y135.556 E13.05744
G1 X136.242 Y152.536 E15.55483
G1 X135.590 Y153.198 E15.65146
G1 X112.421 Y159.406 E18.14604
G1 X111.501 Y159.653 E18.24510
G1 X88.316 Y153.440 E20.74142
G1 X87.444 Y153.222 E20.83490
G1 X69.799 Y135.576 E23.43017
G1 X63.591 Y112.409 E25.92454
G1 X63.346 Y111.506 E26.02185
G1 X69.560 Y88.316 E28.51869
G1 X69.778 Y87.444 E28.61217
G1 X86.758 Y70.464 E31.10956
G10
G0 F9000 X76.865 Y109.637
;TYPE:WALL-INNER
G11
G1 F1800 X77.076 Y109.692 E31.13224
G1 X77.424 Y109.842 E31.17165
G1 X77.621 Y109.967 E31.19591
G1 X77.798 Y110.114 E31.21984
G1 X77.963 Y110.289 E31.24485
G1 X78.099 Y110.477 E31.26898
G1 X78.265 Y110.802 E31.30694
G1 X78.367 Y111.154 E31.34505
G1 X78.397 Y111.386 E31.36938
G1 X78.399 Y111.491 E31.38030
G1 X78.384 Y111.750 E31.40728
G1 X78.339 Y111.975 E31.43115
G1 X78.225 Y112.295 E31.46648
G1 X78.035 Y112.615 E31.50518
G1 X77.799 Y112.882 E31.54224
G1 X77.505 Y113.110 E31.58093
G1 X77.205 Y113.264 E31.61601
G1 X76.847 Y113.367 E31.65475
G1 X76.497 Y113.399 E31.69130
G1 X76.152 Y113.367 E31.72733
G1 X75.690 Y113.216 E31.77788
G1 X75.365 Y113.022 E31.81725
G1 X75.204 Y112.900 E31.83825
G1 X67.656 Y112.900 E32.62325
G1 X67.281 Y111.501 E32.77388
G1 X67.657 Y110.100 E32.92474
G1 X75.169 Y110.100 E33.70599
G1 X75.695 Y109.781 E33.76996
G1 X75.909 Y109.697 E33.79387
G1 X76.268 Y109.616 E33.83215
G1 X76.493 Y109.602 E33.85559
G1 X76.865 Y109.637 E33.89445
G0 F9000 X76.626 Y109.629
G1 F1800 X76.479 Y109.625 E33.90975
G1 X76.167 Y109.654 E33.94233
G1 X75.703 Y109.804 E33.99305
G1 X75.598 Y109.856 E34.00523
G1 X75.389 Y109.989 E34.03100
G1 X75.208 Y110.140 E34.05551
G1 X74.988 Y110.389 E34.09007
G1 X74.860 Y110.590 E34.11485
G1 X74.710 Y110.941 E34.15455
G1 X74.641 Y111.255 E34.18798
G1 X74.623 Y111.509 E34.21447
G1 X74.656 Y111.852 E34.25030
G1 X74.752 Y112.181 E34.28595
G1 X74.856 Y112.404 E34.31154
G1 X74.988 Y112.611 E34.33707
G1 X75.215 Y112.868 E34.37273
G1 X75.494 Y113.085 E34.40949
G1 X75.818 Y113.250 E34.44730
G1 X76.247 Y113.359 E34.49334
G1 X76.528 Y113.377 E34.52262
G1 X77.063 Y113.293 E34.57894
G1 X77.414 Y113.141 E34.61872
G1 X77.787 Y112.870 E34.66667
G1 X78.081 Y112.515 E34.71461
G1 X78.251 Y112.182 E34.75349
G1 X78.360 Y111.754 E34.79943
G1 X78.378 Y111.491 E34.82684
G1 X78.347 Y111.166 E34.86080
G1 X78.197 Y110.703 E34.91141
G1 X78.145 Y110.598 E34.92360
G1 X77.945 Y110.305 E34.96049
G1 X77.604 Y109.984 E35.00920
G1 X77.403 Y109.856 E35.03398
G1 X77.079 Y109.717 E35.07065
G1 X76.844 Y109.656 E35.09590
G1 X76.626 Y109.629 E35.11874
G10
G0 F9000 X144.622 Y111.509
G11
G1 F1800 X144.653 Y111.834 E35.15269
G1 X144.803 Y112.297 E35.20331
G1 X144.855 Y112.402 E35.21550
G1 X145.055 Y112.695 E35.25239
G1 X145.396 Y113.016 E35.30109
G1 X145.597 Y113.144 E35.32588
G1 X145.921 Y113.283 E35.36254
G1 X146.156 Y113.344 E35.38779
G1 X146.374 Y113.371 E35.41064
G1 X146.521 Y113.375 E35.42593
G1 X146.833 Y113.346 E35.45852
G1 X147.297 Y113.196 E35.50924
G1 X147.402 Y113.144 E35.52142
G1 X147.611 Y113.011 E35.54718
G1 X147.792 Y112.860 E35.57170
G1 X148.006 Y112.618 E35.60530
G1 X148.144 Y112.402 E35.63195
G1 X148.290 Y112.059 E35.67072
G1 X148.359 Y111.745 E35.70416
G1 X148.377 Y111.491 E35.73064
G1 X148.344 Y111.148 E35.76648
G1 X148.248 Y110.819 E35.80212
G1 X148.144 Y110.596 E35.82771
G1 X148.012 Y110.389 E35.85324
G1 X147.785 Y110.132 E35.88890
G1 X147.506 Y109.915 E35.92566
G1 X147.182 Y109.750 E35.96348
G1 X146.753 Y109.641 E36.00951
G1 X146.472 Y109.623 E36.03879
G1 X145.937 Y109.707 E36.09512
G1 X145.586 Y109.859 E36.13490
G1 X145.213 Y110.130 E36.18285
G1 X144.919 Y110.485 E36.23078
G1 X144.749 Y110.818 E36.26967
G1 X144.640 Y111.246 E36.31560
G1 X144.622 Y111.509 E36.34302
G0 F9000 X144.601 Y111.507
G1 F1800 X144.616 Y111.250 E36.36979
G1 X144.733 Y110.803 E36.41784
G1 X144.965 Y110.385 E36.46756
G1 X145.201 Y110.118 E36.50462
G1 X145.495 Y109.890 E36.54332
G1 X145.795 Y109.736 E36.57839
G1 X146.153 Y109.633 E36.61713
G1 X146.503 Y109.601 E36.65368
G1 X146.848 Y109.633 E36.68971
G1 X147.310 Y109.784 E36.74026
G1 X147.635 Y109.978 E36.77963
G1 X147.796 Y110.100 E36.80064
G1 X155.343 Y110.100 E37.58552
G1 X155.718 Y111.500 E37.73626
G1 X155.341 Y112.908 E37.88785
G1 X147.831 Y112.900 E38.66889
G1 X147.305 Y113.219 E38.73286
G1 X147.091 Y113.303 E38.75677
G1 X146.732 Y113.384 E38.79505
G1 X146.507 Y113.398 E38.81849
G1 X146.135 Y113.363 E38.85735
G1 X145.924 Y113.308 E38.88003
G1 X145.576 Y113.158 E38.91944
G1 X145.379 Y113.033 E38.94370
G1 X145.202 Y112.886 E38.96763
G1 X145.037 Y112.711 E38.99265
G1 X144.901 Y112.523 E39.01678
G1 X144.735 Y112.198 E39.05473
G1 X144.633 Y111.846 E39.09285
G1 X144.603 Y111.614 E39.11718
G1 X144.601 Y111.507 E39.12831
G0 F9000 X144.239 Y111.075
;TYPE:WALL-OUTER
G1 F1800 X144.359 Y110.659 E39.17333
G1 X144.418 Y110.523 E39.18875
G1 X144.641 Y110.147 E39.23422
G1 X144.927 Y109.823 E39.27916
G1 X145.269 Y109.558 E39.32416
G1 X145.524 Y109.418 E39.35441
G1 X145.932 Y109.271 E39.39951
G1 X146.199 Y109.220 E39.42778
G1 X146.503 Y109.201 E39.45946
G1 X146.928 Y109.241 E39.50386
G1 X147.064 Y109.271 E39.51834
G1 X147.481 Y109.421 E39.56443
G1 X147.858 Y109.645 E39.61004
G1 X147.931 Y109.700 E39.61954
G1 X155.065 Y109.700 E40.36148
G1 X149.646 Y89.476 E42.53897
G1 X133.524 Y73.354 E44.91016
G1 X112.054 Y67.603 E47.22176
G1 X111.500 Y67.453 E47.28145
G1 X89.596 Y73.322 E49.63982
G1 X89.477 Y73.353 E49.65261
G1 X73.355 Y89.476 E52.02388
G1 X67.936 Y109.700 E54.20137
G1 X75.058 Y109.700 E54.94206
G1 X75.518 Y109.421 E54.99801
G1 X75.789 Y109.314 E55.02831
G1 X76.212 Y109.219 E55.07340
G1 X76.500 Y109.201 E55.10341
G1 X76.932 Y109.242 E55.14854
G1 X77.209 Y109.313 E55.17828
G1 X77.612 Y109.488 E55.22397
G1 X77.855 Y109.642 E55.25389
G1 X78.071 Y109.821 E55.28307
G1 X78.274 Y110.037 E55.31390
G1 X78.440 Y110.265 E55.34323
G1 X78.638 Y110.654 E55.38862
G1 X78.760 Y111.075 E55.43421
G1 X78.796 Y111.354 E55.46346
G1 X78.800 Y111.490 E55.47762
G1 X78.761 Y111.925 E55.52304
G1 X78.641 Y112.341 E55.56806
G1 X78.582 Y112.477 E55.58348
G1 X78.359 Y112.853 E55.62895
G1 X78.073 Y113.177 E55.67389
G1 X77.731 Y113.442 E55.71889
G1 X77.476 Y113.582 E55.74914
G1 X77.068 Y113.729 E55.79424
G1 X76.801 Y113.780 E55.82251
G1 X76.497 Y113.799 E55.85419
G1 X76.072 Y113.759 E55.89859
G1 X75.936 Y113.729 E55.91307
G1 X75.519 Y113.579 E55.95916
G1 X75.142 Y113.355 E56.00477
G1 X75.069 Y113.300 E56.01427
G1 X67.936 Y113.300 E56.75610
G1 X73.355 Y133.524 E58.93360
G1 X89.476 Y149.646 E61.30472
G1 X111.500 Y155.547 E63.67601
G1 X133.404 Y149.678 E66.03438
G1 X133.523 Y149.647 E66.04717
G1 X149.645 Y133.524 E68.41843
G1 X155.063 Y113.307 E70.59520
G1 X147.942 Y113.300 E71.33578
G1 X147.482 Y113.579 E71.39173
G1 X147.211 Y113.686 E71.42203
G1 X146.788 Y113.781 E71.46712
G1 X146.500 Y113.799 E71.49713
G1 X146.068 Y113.758 E71.54226
G1 X145.791 Y113.687 E71.57200
G1 X145.388 Y113.512 E71.61769
G1 X145.145 Y113.358 E71.64761
G1 X144.929 Y113.179 E71.67679
G1 X144.725 Y112.962 E71.70776
G1 X144.560 Y112.735 E71.73695
G1 X144.362 Y112.346 E71.78234
G1 X144.240 Y111.925 E71.82793
G1 X144.204 Y111.646 E71.85719
G1 X144.200 Y111.510 E71.87134
G1 X144.239 Y111.075 E71.91676
G0 F9000 X145.037 Y111.309
G1 F1800 X145.023 Y111.504 E71.93709
G1 X145.049 Y111.770 E71.96489
G1 X145.165 Y112.127 E72.00392
G1 X145.254 Y112.291 E72.02333
G1 X145.424 Y112.509 E72.05208
G1 X145.632 Y112.693 E72.08096
G1 X145.956 Y112.871 E72.11941
G1 X146.132 Y112.928 E72.13865
G1 X146.404 Y112.972 E72.16730
G1 X146.508 Y112.974 E72.17812
G1 X146.770 Y112.950 E72.20548
G1 X147.127 Y112.834 E72.24452
G1 X147.370 Y112.691 E72.27385
G1 X147.513 Y112.572 E72.29319
G1 X147.689 Y112.372 E72.32090
G1 X147.871 Y112.043 E72.36000
G1 X147.962 Y111.688 E72.39812
G1 X147.976 Y111.496 E72.41814
G1 X147.949 Y111.224 E72.44657
G1 X147.873 Y110.960 E72.47514
G1 X147.691 Y110.630 E72.51433
G1 X147.510 Y110.425 E72.54277
G1 X147.291 Y110.254 E72.57167
G1 X147.040 Y110.127 E72.60092
G1 X146.690 Y110.038 E72.63848
G1 X146.491 Y110.025 E72.65922
G1 X146.049 Y110.094 E72.70575
G1 X145.785 Y110.208 E72.73565
G1 X145.489 Y110.424 E72.77376
G1 X145.255 Y110.706 E72.81187
G1 X145.126 Y110.960 E72.84150
G1 X145.037 Y111.309 E72.87896
G0 F9000 X144.746 Y111.235
G0 X145.214 Y110.132
G0 X146.751 Y109.642
G0 X148.011 Y110.390
G0 X155.828 Y111.484
G0 X156.133 Y111.500
G1 F1800 X150.155 Y133.806 E75.28065
G1 X150.152 Y133.819 E75.28203
G1 X133.837 Y150.132 E77.68147
G1 X133.815 Y150.154 E77.68470
G1 X111.500 Y156.133 E80.08732
G1 X89.194 Y150.155 E82.48901
G1 X89.181 Y150.152 E82.49040
G1 X72.847 Y133.817 E84.89285
G1 X66.867 Y111.500 E87.29570
G1 X72.845 Y89.194 E89.69738
G1 X72.848 Y89.181 E89.69877
G1 X89.163 Y72.868 E92.09821
G1 X89.185 Y72.846 E92.10144
G1 X111.500 Y66.867 E94.50406
G1 X133.817 Y72.848 E96.90694
G1 X150.153 Y89.183 E99.30953
G1 X156.133 Y111.500 E101.71238
G10
G0 F9000 X77.977 Y111.496
G11
G1 F1800 X77.951 Y111.230 E101.74018
G1 X77.835 Y110.873 E101.77921
G1 X77.746 Y110.709 E101.79862
G1 X77.576 Y110.491 E101.82737
G1 X77.368 Y110.307 E101.85625
G1 X77.044 Y110.129 E101.89470
G1 X76.868 Y110.072 E101.91394
G1 X76.596 Y110.028 E101.94259
G1 X76.492 Y110.026 E101.95341
G1 X76.230 Y110.050 E101.98077
G1 X75.873 Y110.166 E102.01981
G1 X75.630 Y110.309 E102.04914
G1 X75.487 Y110.428 E102.06848
G1 X75.309 Y110.630 E102.09648
G1 X75.209 Y110.787 E102.11584
G1 X75.095 Y111.052 E102.14585
G1 X75.038 Y111.312 E102.17353
G1 X75.024 Y111.504 E102.19355
G1 X75.051 Y111.776 E102.22198
G1 X75.127 Y112.040 E102.25055
G1 X75.309 Y112.370 E102.28974
G1 X75.490 Y112.575 E102.31818
G1 X75.709 Y112.746 E102.34708
G1 X75.960 Y112.873 E102.37633
G1 X76.310 Y112.962 E102.41389
G1 X76.509 Y112.975 E102.43463
G1 X76.951 Y112.906 E102.48116
G1 X77.215 Y112.792 E102.51106
G1 X77.511 Y112.576 E102.54917
G1 X77.745 Y112.294 E102.58728
G1 X77.874 Y112.040 E102.61691
G1 X77.963 Y111.691 E102.65437
G1 X77.977 Y111.496 E102.67470
G0 F9000 X78.275 Y111.515
G0 X78.080 Y112.513
G0 X77.062 Y113.291
G0 X75.495 Y113.083
G0 X74.657 Y111.851
G0 X74.681 Y110.602
;TYPE:SKIN
G1 F1800 X74.338 Y110.259 E102.72515
G0 F9000 X73.772 Y110.259
G1 F1800 X74.529 Y111.016 E102.83648
G0 F9000 X74.462 Y111.514
G1 F1800 X73.206 Y110.259 E103.02114
G0 F9000 X72.641 Y110.259
G1 F1800 X74.594 Y112.212 E103.30839
G0 F9000 X74.555 Y112.738
G1 F1800 X72.075 Y110.259 E103.67307
G0 F9000 X71.509 Y110.259
G1 F1800 X73.989 Y112.738 E104.03775
G0 F9000 X73.423 Y112.738
G1 F1800 X70.944 Y110.259 E104.40235
G0 F9000 X70.378 Y110.259
G1 F1800 X72.858 Y112.738 E104.76703
G0 F9000 X72.292 Y112.738
G1 F1800 X69.812 Y110.259 E105.13171
G0 F9000 X69.246 Y110.259
G1 F1800 X71.726 Y112.738 E105.49639
G0 F9000 X71.161 Y112.738
G1 F1800 X68.681 Y110.259 E105.86107
G0 F9000 X68.115 Y110.259
G1 F1800 X70.595 Y112.738 E106.22576
G0 F9000 X70.029 Y112.738
G1 F1800 X67.730 Y110.439 E106.56389
G0 F9000 X67.610 Y110.885
G1 F1800 X69.464 Y112.738 E106.83650
G0 F9000 X68.898 Y112.738
G1 F1800 X67.491 Y111.331 E107.04344
G0 F9000 X67.575 Y111.981
G1 F1800 X68.332 Y112.738 E107.15477
G0 F9000 X67.716 Y113.254
G1 F1800 X67.624 Y113.445 E107.17754
G1 X67.909 Y114.295 E107.21204
G1 X68.116 Y115.068 E107.24658
G1 X68.324 Y115.841 E107.28112
G1 X68.530 Y116.613 E107.31540
G1 X68.737 Y117.386 E107.34994
G1 X68.944 Y118.159 E107.38448
G1 X69.152 Y118.932 E107.41903
G1 X69.358 Y119.704 E107.45351
G1 X69.565 Y120.477 E107.48805
G1 X69.772 Y121.250 E107.52259
G1 X69.980 Y122.022 E107.55710
G1 X70.186 Y122.795 E107.59162
G1 X70.393 Y123.568 E107.62616
G1 X70.600 Y124.341 E107.66070
G1 X70.808 Y125.113 E107.69521
G1 X71.014 Y125.886 E107.72974
G1 X71.221 Y126.659 E107.76448
G1 X71.428 Y127.431 E107.79898
G1 X71.636 Y128.204 E107.83374
G1 X71.843 Y128.977 E107.86827
G1 X72.049 Y129.749 E107.90276
G1 X72.256 Y130.522 E107.93730
G1 X72.464 Y131.295 E107.97206
G1 X72.671 Y132.068 E108.00659
G1 X72.878 Y132.841 E108.04134
G1 X73.100 Y133.346 E108.09871
G10
G0 F9000 X89.654 Y149.899
G11
G1 F1800 X90.156 Y150.119 E108.13277
G1 X90.929 Y150.326 E108.16689
G1 X91.702 Y150.533 E108.20101
G1 X92.474 Y150.740 E108.23509
G1 X93.247 Y150.947 E108.26942
G1 X94.020 Y151.154 E108.30355
G1 X94.793 Y151.361 E108.33767
G1 X95.565 Y151.568 E108.37175
G1 X96.338 Y151.775 E108.40587
G1 X97.111 Y151.982 E108.44020
G1 X97.884 Y152.190 E108.47454
G1 X98.657 Y152.397 E108.50866
G1 X99.429 Y152.603 E108.54273
G1 X100.202 Y152.810 E108.57706
G1 X100.974 Y153.018 E108.61136
G1 X101.747 Y153.225 E108.64569
G1 X102.520 Y153.431 E108.68001
G1 X103.293 Y153.639 E108.71436
G1 X104.065 Y153.846 E108.74864
G1 X104.838 Y154.053 E108.78297
G1 X105.611 Y154.260 E108.81730
G1 X106.384 Y154.467 E108.85184
G1 X107.157 Y154.674 E108.88617
G1 X107.930 Y154.881 E108.92050
G1 X108.702 Y155.088 E108.95479
G1 X109.475 Y155.295 E108.98933
G1 X110.248 Y155.502 E109.02366
G1 X111.021 Y155.710 E109.05821
G1 X111.669 Y155.793 E109.09099
G1 X112.115 Y155.673 E109.11068
G1 X112.561 Y155.554 E109.13037
G1 X113.007 Y155.434 E109.15006
G1 X113.454 Y155.315 E109.16991
G1 X113.900 Y155.195 E109.18960
G1 X114.346 Y155.076 E109.20928
G1 X114.792 Y154.956 E109.22898
G1 X115.238 Y154.837 E109.24866
G1 X115.685 Y154.717 E109.26839
G1 X116.131 Y154.598 E109.28808
G1 X116.577 Y154.478 E109.30777
G1 X117.023 Y154.359 E109.32745
G1 X117.469 Y154.239 E109.34715
G1 X117.915 Y154.120 E109.36683
G1 X118.362 Y154.000 E109.38656
G1 X118.808 Y153.880 E109.40614
G1 X119.254 Y153.761 E109.42570
G1 X119.700 Y153.641 E109.44527
G1 X120.146 Y153.522 E109.46496
G1 X120.593 Y153.402 E109.48469
G1 X121.039 Y153.283 E109.50425
G1 X121.485 Y153.163 E109.52383
G1 X121.931 Y153.044 E109.54351
G1 X122.377 Y152.924 E109.56308
G1 X122.824 Y152.805 E109.58281
G1 X123.270 Y152.685 E109.60238
G1 X123.716 Y152.566 E109.62207
G1 X124.162 Y152.446 E109.64164
G1 X124.608 Y152.327 E109.66132
G1 X125.054 Y152.207 E109.68102
G1 X125.501 Y152.088 E109.70074
G1 X125.947 Y151.968 E109.72031
G1 X126.393 Y151.849 E109.74000
G1 X126.839 Y151.729 E109.75957
G1 X127.285 Y151.610 E109.77925
G1 X127.732 Y151.490 E109.79899
G1 X128.178 Y151.371 E109.81867
G1 X128.624 Y151.251 E109.83824
G1 X129.070 Y151.132 E109.85793
G1 X129.516 Y151.012 E109.87750
G1 X129.962 Y150.893 E109.89718
G1 X130.409 Y150.773 E109.91692
G1 X130.854 Y150.653 E109.93645
G1 X131.300 Y150.534 E109.95601
G1 X131.747 Y150.414 E109.97563
G1 X132.193 Y150.295 E109.99519
G1 X132.639 Y150.175 E110.01476
G1 X133.085 Y150.056 E110.03433
G1 X133.520 Y149.925 E110.05382
G1 X133.922 Y149.761 E110.07086
G1 X134.088 Y149.362 E110.08783
G1 X134.488 Y149.196 E110.10494
G1 X134.654 Y148.796 E110.12206
G1 X135.054 Y148.630 E110.13917
G1 X135.220 Y148.231 E110.15614
G1 X135.619 Y148.064 E110.17312
G1 X135.786 Y147.665 E110.19010
G1 X136.185 Y147.499 E110.20718
G1 X136.351 Y147.099 E110.22430
G1 X136.751 Y146.933 E110.24141
G1 X136.917 Y146.534 E110.25849
G1 X137.316 Y146.367 E110.27547
G1 X137.483 Y145.968 E110.29245
G1 X137.882 Y145.802 E110.30953
G1 X138.048 Y145.402 E110.32665
G1 X138.448 Y145.236 E110.34376
G1 X138.614 Y144.836 E110.36088
G1 X139.013 Y144.670 E110.37784
G1 X139.180 Y144.271 E110.39483
G1 X139.579 Y144.105 E110.41179
G1 X139.745 Y143.705 E110.42891
G1 X140.145 Y143.539 E110.44602
G1 X140.311 Y143.139 E110.46314
G1 X140.710 Y142.973 E110.48010
G1 X140.877 Y142.574 E110.49709
G1 X141.276 Y142.408 E110.51405
G1 X141.442 Y142.008 E110.53117
G1 X141.842 Y141.842 E110.54828
G1 X142.007 Y141.442 E110.56550
G1 X142.408 Y141.276 E110.58265
G1 X142.573 Y140.876 E110.59975
G1 X142.973 Y140.710 E110.61686
G1 X143.139 Y140.310 E110.63398
G1 X143.539 Y140.145 E110.65119
G1 X143.704 Y139.745 E110.66840
