;FLAVOR:UltiGCode
;TIME:803
;MATERIAL:838
;MATERIAL2:0
;NOZZLE_DIAMETER:0.400000
;NOZZLE_DIAMETER2:0.400000

;Layer count: 58
;LAYER:0
M107
G0 F9000 X92.900 Y100.400 Z0.260
;TYPE:SKIRT
G1 F1800 X130.100 Y100.400 E3.86880
G1 X130.100 Y122.600 E6.17760
G1 X94.801 Y122.600 E9.84870
G1 X94.801 Y117.699 E10.35840
G1 X92.900 Y117.699 E10.55610
G1 X92.900 Y100.400 E12.35520
G0 F9000 X93.300 Y100.800
G1 F1800 X129.700 Y100.800 E16.14080
G1 X129.700 Y122.200 E18.36640
G1 X95.201 Y122.200 E21.95430
G1 X95.201 Y117.299 E22.46400
G1 X93.300 Y117.299 E22.66170
G1 X93.300 Y100.800 E24.37760
G10
G0 F9000 X97.100 Y104.600
;TYPE:WALL-INNER
G11
G1 F1800 X125.900 Y104.600 E27.37280
G1 X125.900 Y118.400 E28.80800
G1 X99.001 Y118.400 E31.60550
G1 X99.001 Y113.499 E32.11520
G1 X97.100 Y113.499 E32.31290
G1 X97.100 Y104.600 E33.23840
G0 F9000 X100.777 Y112.159
G1 F1800 X100.521 Y112.282 E33.26794
G1 X100.153 Y112.550 E33.31528
G1 X99.908 Y112.827 E33.35374
G1 X99.721 Y113.140 E33.39166
G1 X99.653 Y113.298 E33.40955
G1 X99.541 Y113.732 E33.45617
G1 X99.522 Y114.029 E33.48712
G1 X99.614 Y114.603 E33.54757
G1 X99.825 Y115.051 E33.59908
G1 X100.064 Y115.361 E33.63978
G1 X100.442 Y115.672 E33.69069
G1 X100.872 Y115.872 E33.74001
G1 X101.017 Y115.915 E33.75574
G1 X101.252 Y115.960 E33.78063
G1 X101.512 Y115.976 E33.80772
G1 X101.778 Y115.958 E33.83544
G1 X102.223 Y115.840 E33.88332
G1 X102.479 Y115.717 E33.91286
G1 X102.847 Y115.449 E33.96021
G1 X103.092 Y115.172 E33.99867
G1 X103.279 Y114.859 E34.03659
G1 X103.347 Y114.701 E34.05447
G1 X103.459 Y114.267 E34.10109
G1 X103.478 Y113.971 E34.13194
G1 X103.386 Y113.396 E34.19250
G1 X103.175 Y112.948 E34.24400
G1 X102.936 Y112.638 E34.28471
G1 X102.558 Y112.327 E34.33562
G1 X102.128 Y112.127 E34.38494
G1 X101.983 Y112.084 E34.40066
G1 X101.746 Y112.038 E34.42577
G1 X101.488 Y112.024 E34.45264
G1 X101.223 Y112.041 E34.48026
G1 X100.777 Y112.159 E34.52824
G0 F9000 X102.128 Y112.128
G0 X109.590 Y113.739
G1 F1800 X109.572 Y114.029 E34.55846
G1 X109.660 Y114.587 E34.61721
G1 X109.866 Y115.024 E34.66745
G1 X110.095 Y115.320 E34.70637
G1 X110.368 Y115.560 E34.74418
G1 X110.680 Y115.742 E34.78174
G1 X111.030 Y115.867 E34.82039
G1 X111.260 Y115.911 E34.84475
G1 X111.530 Y115.926 E34.87287
G1 X111.981 Y115.867 E34.92018
G1 X112.340 Y115.735 E34.95995
G1 X112.730 Y115.484 E35.00819
G1 X112.991 Y115.221 E35.04672
G1 X113.245 Y114.822 E35.09591
G1 X113.389 Y114.380 E35.14426
G1 X113.421 Y114.128 E35.17068
G1 X113.425 Y113.961 E35.18805
G1 X113.339 Y113.412 E35.24584
G1 X113.128 Y112.964 E35.29735
G1 X112.825 Y112.602 E35.34644
G1 X112.623 Y112.435 E35.37370
G1 X112.319 Y112.257 E35.41034
G1 X111.969 Y112.132 E35.44899
G1 X111.741 Y112.089 E35.47312
G1 X111.471 Y112.071 E35.50126
G1 X111.017 Y112.132 E35.54890
G1 X110.651 Y112.267 E35.58947
G1 X110.191 Y112.582 E35.64745
G1 X109.934 Y112.875 E35.68799
G1 X109.706 Y113.289 E35.73714
G1 X109.590 Y113.739 E35.78547
G0 F9000 X110.192 Y112.583
G0 X111.741 Y112.089
G0 X113.126 Y112.966
G0 X119.623 Y114.019
G1 F1800 X119.679 Y114.467 E35.83242
G1 X119.852 Y114.905 E35.88140
G1 X120.119 Y115.271 E35.92852
G1 X120.326 Y115.465 E35.95802
G1 X120.701 Y115.699 E36.00399
G1 X121.024 Y115.815 E36.03968
G1 X121.264 Y115.860 E36.06508
G1 X121.519 Y115.877 E36.09166
G1 X121.863 Y115.842 E36.12762
G1 X122.211 Y115.738 E36.16539
G1 X122.613 Y115.513 E36.21330
G1 X122.955 Y115.190 E36.26223
G1 X123.245 Y114.701 E36.32135
G1 X123.359 Y114.253 E36.36943
G1 X123.376 Y113.981 E36.39777
G1 X123.320 Y113.532 E36.44483
G1 X123.147 Y113.094 E36.49381
G1 X122.880 Y112.728 E36.54092
G1 X122.673 Y112.534 E36.57043
G1 X122.298 Y112.300 E36.61640
G1 X121.975 Y112.184 E36.65209
G1 X121.735 Y112.139 E36.67749
G1 X121.482 Y112.122 E36.70386
G1 X121.136 Y112.157 E36.74002
G1 X120.788 Y112.261 E36.77780
G1 X120.386 Y112.486 E36.82571
G1 X120.044 Y112.809 E36.87463
G1 X119.754 Y113.298 E36.93376
G1 X119.640 Y113.746 E36.98184
G1 X119.623 Y114.019 E37.01028
G0 F9000 X120.024 Y114.006
;TYPE:WALL-OUTER
G1 F1800 X120.070 Y114.367 E37.04813
G1 X120.205 Y114.711 E37.08656
G1 X120.420 Y115.005 E37.12444
G1 X120.571 Y115.146 E37.14593
G1 X120.876 Y115.337 E37.18335
G1 X121.129 Y115.428 E37.21132
G1 X121.315 Y115.463 E37.23100
G1 X121.512 Y115.476 E37.25153
G1 X121.785 Y115.448 E37.28007
G1 X122.054 Y115.367 E37.30929
G1 X122.374 Y115.188 E37.34742
G1 X122.640 Y114.938 E37.38539
G1 X122.872 Y114.546 E37.43276
G1 X122.962 Y114.190 E37.47095
G1 X122.975 Y113.994 E37.49138
G1 X122.929 Y113.632 E37.52933
G1 X122.794 Y113.288 E37.56776
G1 X122.579 Y112.994 E37.60564
G1 X122.428 Y112.853 E37.62713
G1 X122.123 Y112.662 E37.66455
G1 X121.870 Y112.571 E37.69252
G1 X121.684 Y112.536 E37.71220
G1 X121.489 Y112.523 E37.73252
G1 X121.214 Y112.551 E37.76127
G1 X120.945 Y112.632 E37.79049
G1 X120.625 Y112.811 E37.82862
G1 X120.359 Y113.061 E37.86659
G1 X120.127 Y113.453 E37.91396
G1 X120.037 Y113.809 E37.95215
G1 X120.024 Y114.006 E37.97268
G0 F9000 X119.725 Y113.988
G0 X113.318 Y114.135
G0 X113.022 Y114.098
G1 F1800 X113.024 Y113.987 E37.98423
G1 X112.953 Y113.531 E38.03222
G1 X112.788 Y113.181 E38.07246
G1 X112.542 Y112.887 E38.11233
G1 X112.393 Y112.764 E38.13243
G1 X112.144 Y112.618 E38.16244
G1 X111.876 Y112.521 E38.19209
G1 X111.691 Y112.486 E38.21167
G1 X111.485 Y112.473 E38.23313
G1 X111.114 Y112.523 E38.27207
G1 X110.836 Y112.625 E38.30286
G1 X110.458 Y112.883 E38.35046
G1 X110.263 Y113.106 E38.38127
G1 X110.081 Y113.438 E38.42064
G1 X109.987 Y113.802 E38.45974
G1 X109.974 Y114.010 E38.48142
G1 X110.046 Y114.468 E38.52963
G1 X110.209 Y114.814 E38.56941
G1 X110.388 Y115.045 E38.59980
G1 X110.603 Y115.234 E38.62957
G1 X110.855 Y115.381 E38.65991
G1 X111.123 Y115.478 E38.68956
G1 X111.309 Y115.513 E38.70924
G1 X111.515 Y115.525 E38.73070
G1 X111.885 Y115.476 E38.76952
G1 X112.161 Y115.375 E38.80008
G1 X112.477 Y115.171 E38.83920
G1 X112.677 Y114.970 E38.86869
G1 X112.880 Y114.650 E38.90810
G1 X112.997 Y114.292 E38.94727
G1 X113.022 Y114.098 E38.96761
G0 F9000 X113.318 Y114.135
G0 X112.990 Y115.219
G0 X111.530 Y115.924
G0 X110.096 Y115.318
G0 X103.375 Y114.008
G0 X103.076 Y113.990
G1 F1800 X103.000 Y113.515 E39.01764
G1 X102.832 Y113.158 E39.05867
G1 X102.647 Y112.918 E39.09019
G1 X102.343 Y112.668 E39.13112
G1 X101.987 Y112.502 E39.17197
G1 X101.888 Y112.473 E39.18270
G1 X101.697 Y112.436 E39.20294
G1 X101.490 Y112.425 E39.22449
G1 X101.288 Y112.438 E39.24555
G1 X100.916 Y112.536 E39.28555
G1 X100.728 Y112.627 E39.30728
G1 X100.424 Y112.848 E39.34636
G1 X100.232 Y113.064 E39.37642
G1 X100.078 Y113.323 E39.40776
G1 X100.032 Y113.428 E39.41968
G1 X99.938 Y113.795 E39.45908
G1 X99.924 Y114.010 E39.48149
G1 X100.000 Y114.484 E39.53141
G1 X100.168 Y114.841 E39.57245
G1 X100.353 Y115.081 E39.60396
G1 X100.657 Y115.331 E39.64489
G1 X101.013 Y115.497 E39.68575
G1 X101.112 Y115.526 E39.69647
G1 X101.303 Y115.563 E39.71671
G1 X101.510 Y115.575 E39.73827
G1 X101.713 Y115.561 E39.75943
G1 X102.084 Y115.463 E39.79934
G1 X102.272 Y115.372 E39.82106
G1 X102.576 Y115.151 E39.86015
G1 X102.768 Y114.935 E39.89021
G1 X102.922 Y114.676 E39.92154
G1 X102.968 Y114.571 E39.93347
G1 X103.062 Y114.204 E39.97287
G1 X103.076 Y113.990 E39.99517
G0 F9000 X103.375 Y114.008
G0 X103.091 Y115.171
G0 X101.778 Y115.956
G0 X100.443 Y115.670
G0 X99.616 Y114.601
G0 X98.901 Y113.899
G0 X98.601 Y113.899
G1 F1800 X96.700 Y113.899 E40.19287
G1 X96.700 Y104.200 E41.20157
G1 X126.300 Y104.200 E44.27997
G1 X126.300 Y118.800 E45.79837
G1 X98.601 Y118.800 E48.67907
G1 X98.601 Y113.899 E49.18877
G0 F9000 X99.161 Y114.151
;TYPE:SKIN
G1 F1800 X99.420 Y114.411 E49.22694
G0 F9000 X99.161 Y114.717
G1 F1800 X102.682 Y118.238 E49.74480
G0 F9000 X102.116 Y118.238
G1 F1800 X99.161 Y115.283 E50.17942
G0 F9000 X99.161 Y115.848
G1 F1800 X101.551 Y118.238 E50.53093
G0 F9000 X100.985 Y118.238
G1 F1800 X99.161 Y116.414 E50.79920
G0 F9000 X99.161 Y116.980
G1 F1800 X100.419 Y118.238 E50.98423
G0 F9000 X101.103 Y116.094
G1 F1800 X103.248 Y118.238 E51.29964
G0 F9000 X103.813 Y118.238
G1 F1800 X101.698 Y116.123 E51.61071
G0 F9000 X102.161 Y116.020
G1 F1800 X104.379 Y118.238 E51.93693
G0 F9000 X104.945 Y118.238
G1 F1800 X102.560 Y115.854 E52.28763
G0 F9000 X102.888 Y115.616
G1 F1800 X105.510 Y118.238 E52.67327
G0 F9000 X106.076 Y118.238
G1 F1800 X103.166 Y115.328 E53.10127
G0 F9000 X103.388 Y114.985
G1 F1800 X106.642 Y118.238 E53.57979
G0 F9000 X107.207 Y118.238
G1 F1800 X103.544 Y114.575 E54.11854
G0 F9000 X103.629 Y114.094
G1 F1800 X107.773 Y118.238 E54.72803
G0 F9000 X108.339 Y118.238
G1 F1800 X103.558 Y113.458 E55.43114
G0 F9000 X102.030 Y111.930
G1 F1800 X97.259 Y107.159 E56.13285
G0 F9000 X97.259 Y107.724
G1 F1800 X101.403 Y111.868 E56.74234
G0 F9000 X100.923 Y111.954
G1 F1800 X97.259 Y108.290 E57.28123
G0 F9000 X97.259 Y108.856
G1 F1800 X100.510 Y112.107 E57.75939
G0 F9000 X100.173 Y112.335
G1 F1800 X97.259 Y109.421 E58.18797
G0 F9000 X97.259 Y109.987
G1 F1800 X99.884 Y112.612 E58.57405
G0 F9000 X99.651 Y112.944
G1 F1800 X97.259 Y110.553 E58.92579
G0 F9000 X97.259 Y111.119
G1 F1800 X99.477 Y113.337 E59.25201
G0 F9000 X99.161 Y113.586
G1 F1800 X99.376 Y113.801 E59.28363
G0 F9000 X98.912 Y113.337
G1 F1800 X97.259 Y111.684 E59.52675
G0 F9000 X97.259 Y112.250
G1 F1800 X98.347 Y113.337 E59.68670
G0 F9000 X97.781 Y113.337
G1 F1800 X97.259 Y112.816 E59.76340
G0 F9000 X98.942 Y113.558
G0 X99.161 Y117.545
G1 F1800 X99.854 Y118.238 E59.86532
G0 F9000 X99.288 Y118.238
G1 F1800 X99.161 Y118.111 E59.88400
G0 F9000 X108.905 Y118.238
G1 F1800 X97.259 Y106.593 E61.59680
G0 F9000 X97.259 Y106.027
G1 F1800 X109.470 Y118.238 E63.39278
G0 F9000 X110.036 Y118.238
G1 F1800 X97.259 Y105.462 E65.27192
G0 F9000 X97.259 Y104.896
G1 F1800 X110.602 Y118.238 E67.23431
G0 F9000 X111.167 Y118.238
G1 F1800 X97.688 Y104.759 E69.21678
G0 F9000 X98.254 Y104.759
G1 F1800 X111.733 Y118.238 E71.19925
G0 F9000 X112.299 Y118.238
G1 F1800 X98.820 Y104.759 E73.18171
G0 F9000 X99.385 Y104.759
G1 F1800 X109.723 Y115.097 E74.70221
G0 F9000 X109.446 Y114.255
G1 F1800 X99.951 Y104.759 E76.09879
G0 F9000 X100.517 Y104.759
G1 F1800 X109.440 Y113.682 E77.41117
G0 F9000 X109.555 Y113.232
G1 F1800 X101.083 Y104.759 E78.65729
G0 F9000 X101.648 Y104.759
G1 F1800 X109.754 Y112.866 E79.84958
G0 F9000 X110.005 Y112.550
G1 F1800 X102.214 Y104.759 E80.99546
G0 F9000 X102.780 Y104.759
G1 F1800 X110.319 Y112.299 E82.10436
G0 F9000 X110.673 Y112.087
G1 F1800 X103.345 Y104.759 E83.18215
G0 F9000 X103.911 Y104.759
G1 F1800 X111.108 Y111.956 E84.24067
G0 F9000 X111.637 Y111.920
G1 F1800 X104.477 Y104.759 E85.29382
G0 F9000 X105.042 Y104.759
G1 F1800 X112.403 Y112.120 E86.37647
G0 F9000 X113.354 Y113.071
G1 F1800 X118.521 Y118.238 E87.13642
G0 F9000 X117.956 Y118.238
G1 F1800 X113.569 Y113.851 E87.78165
G0 F9000 X113.547 Y114.395
G1 F1800 X117.390 Y118.238 E88.34687
G0 F9000 X116.824 Y118.238
G1 F1800 X113.411 Y114.825 E88.84885
G0 F9000 X113.203 Y115.183
G1 F1800 X116.258 Y118.238 E89.29818
G0 F9000 X115.693 Y118.238
G1 F1800 X112.946 Y115.492 E89.70213
G0 F9000 X112.628 Y115.739
G1 F1800 X115.127 Y118.238 E90.06967
G0 F9000 X114.561 Y118.238
G1 F1800 X112.258 Y115.935 E90.40839
G0 F9000 X111.807 Y116.050
G1 F1800 X113.996 Y118.238 E90.73028
G0 F9000 X113.430 Y118.238
G1 F1800 X111.262 Y116.070 E91.04914
G0 F9000 X110.375 Y115.749
G1 F1800 X112.864 Y118.238 E91.41522
G0 F9000 X119.087 Y118.238
G1 F1800 X105.608 Y104.759 E93.39769
G0 F9000 X106.174 Y104.759
G1 F1800 X119.653 Y118.238 E95.38015
G0 F9000 X120.218 Y118.238
G1 F1800 X106.739 Y104.759 E97.36262
G0 F9000 X107.305 Y104.759
G1 F1800 X120.784 Y118.238 E99.34509
G0 F9000 X121.350 Y118.238
G1 F1800 X107.871 Y104.759 E101.32755
G0 F9000 X108.436 Y104.759
G1 F1800 X121.915 Y118.238 E103.31002
G0 F9000 X122.481 Y118.238
G1 F1800 X109.002 Y104.759 E105.29249
G0 F9000 X109.568 Y104.759
G1 F1800 X119.657 Y114.848 E106.77636
G0 F9000 X119.470 Y114.096
G1 F1800 X110.134 Y104.759 E108.14956
G0 F9000 X110.699 Y104.759
G1 F1800 X119.518 Y113.578 E109.44664
G0 F9000 X119.655 Y113.149
G1 F1800 X111.265 Y104.759 E110.68063
G0 F9000 X111.831 Y104.759
G1 F1800 X119.865 Y112.794 E111.86233
G0 F9000 X120.136 Y112.499
G1 F1800 X112.396 Y104.759 E113.00071
G0 F9000 X112.962 Y104.759
G1 F1800 X120.462 Y112.260 E114.10387
G0 F9000 X120.844 Y112.076
G1 F1800 X113.528 Y104.759 E115.17997
G0 F9000 X114.093 Y104.759
G1 F1800 X121.311 Y111.978 E116.24165
G0 F9000 X121.907 Y112.007
G1 F1800 X114.659 Y104.759 E117.30768
G0 F9000 X115.225 Y104.759
G1 F1800 X125.739 Y115.274 E118.85413
G0 F9000 X125.739 Y115.840
G1 F1800 X123.486 Y113.586 E119.18557
G0 F9000 X123.521 Y114.187
G1 F1800 X125.739 Y116.406 E119.51186
G0 F9000 X125.739 Y116.971
G1 F1800 X123.420 Y114.652 E119.85294
G0 F9000 X123.234 Y115.032
G1 F1800 X125.739 Y117.537 E120.22137
G0 F9000 X125.739 Y118.103
G1 F1800 X123.002 Y115.365 E120.62400
G0 F9000 X122.711 Y115.640
G1 F1800 X125.309 Y118.238 E121.00610
G0 F9000 X124.744 Y118.238
G1 F1800 X122.348 Y115.843 E121.35843
G0 F9000 X121.929 Y115.989
G1 F1800 X124.178 Y118.238 E121.68921
G0 F9000 X123.612 Y118.238
G1 F1800 X121.403 Y116.029 E122.01411
G0 F9000 X120.664 Y115.856
G1 F1800 X123.047 Y118.238 E122.36452
G0 F9000 X125.739 Y114.708
G1 F1800 X115.790 Y104.759 E123.82780
G0 F9000 X116.356 Y104.759
G1 F1800 X125.739 Y114.143 E125.20791
G0 F9000 X125.739 Y113.577
G1 F1800 X116.922 Y104.759 E126.50477
G0 F9000 X117.487 Y104.759
G1 F1800 X125.739 Y113.011 E127.71846
G0 F9000 X125.739 Y112.446
G1 F1800 X118.053 Y104.759 E128.84898
G0 F9000 X118.619 Y104.759
G1 F1800 X125.739 Y111.880 E129.89625
G0 F9000 X125.739 Y111.314
G1 F1800 X119.184 Y104.759 E130.86034
G0 F9000 X119.750 Y104.759
G1 F1800 X125.739 Y110.749 E131.74127
G0 F9000 X125.739 Y110.183
G1 F1800 X120.316 Y104.759 E132.53895
G0 F9000 X120.882 Y104.759
G1 F1800 X125.739 Y109.617 E133.25338
G0 F9000 X125.739 Y109.052
G1 F1800 X121.447 Y104.759 E133.88471
G0 F9000 X122.013 Y104.759
G1 F1800 X125.739 Y108.486 E134.43280
G0 F9000 X125.739 Y107.920
G1 F1800 X122.579 Y104.759 E134.89764
G0 F9000 X123.144 Y104.759
G1 F1800 X125.739 Y107.355 E135.27938
G0 F9000 X125.739 Y106.789
G1 F1800 X123.710 Y104.759 E135.57788
G0 F9000 X124.276 Y104.759
G1 F1800 X125.739 Y106.223 E135.79313
G0 F9000 X125.739 Y105.658
G1 F1800 X124.841 Y104.759 E135.92528
G0 F9000 X125.407 Y104.759
G1 F1800 X125.739 Y105.092 E135.97418
;LAYER:1
M106 S84
G0 F9000 X125.900 Y104.600 Z0.360
;TYPE:WALL-INNER
G1 F2040 X125.900 Y118.400 E136.52618
G1 X99.001 Y118.400 E137.60214
G1 X99.001 Y113.499 E137.79818
G1 X97.100 Y113.499 E137.87422
G1 X97.100 Y104.600 E138.23018
G1 X125.900 Y104.600 E139.38218
G0 F9000 X122.405 Y112.352
G1 F2040 X121.995 Y112.190 E139.39981
G1 X121.628 Y112.128 E139.41470
G1 X121.438 Y112.122 E139.42231
G1 X120.817 Y112.246 E139.44764
G1 X120.487 Y112.419 E139.46254
G1 X120.294 Y112.561 E139.47213
G1 X120.053 Y112.803 E139.48579
G1 X119.860 Y113.086 E139.49949
G1 X119.753 Y113.312 E139.50949
G1 X119.640 Y113.745 E139.52739
G1 X119.623 Y114.019 E139.53837
G1 X119.678 Y114.457 E139.55603
G1 X119.808 Y114.811 E139.57111
G1 X119.980 Y115.103 E139.58467
G1 X120.221 Y115.375 E139.59921
G1 X120.594 Y115.647 E139.61767
G1 X121.004 Y115.809 E139.63530
G1 X121.372 Y115.871 E139.65023
G1 X121.562 Y115.877 E139.65784
G1 X122.182 Y115.752 E139.68314
G1 X122.512 Y115.580 E139.69802
G1 X122.705 Y115.438 E139.70761
G1 X122.946 Y115.196 E139.72127
G1 X123.139 Y114.913 E139.73497
G1 X123.246 Y114.687 E139.74497
G1 X123.359 Y114.254 E139.76287
G1 X123.376 Y113.981 E139.77381
G1 X123.321 Y113.542 E139.79151
G1 X123.191 Y113.188 E139.80659
G1 X123.019 Y112.896 E139.82015
G1 X122.778 Y112.624 E139.83469
G1 X122.405 Y112.352 E139.85315
G0 F9000 X120.819 Y112.249
G0 X113.369 Y113.520
G1 F2040 X113.194 Y113.078 E139.87217
G1 X112.977 Y112.761 E139.88753
G1 X112.637 Y112.444 E139.90613
G1 X112.412 Y112.301 E139.91679
G1 X111.988 Y112.134 E139.93502
G1 X111.640 Y112.078 E139.94912
G1 X111.446 Y112.072 E139.95688
G1 X110.904 Y112.164 E139.97887
G1 X110.555 Y112.318 E139.99413
G1 X110.253 Y112.527 E140.00882
G1 X109.881 Y112.950 E140.03135
G1 X109.704 Y113.298 E140.04697
